X:68
T:Col. Robertson's Welcome
M:6/8
Q:1/8=300
K:G
%%MIDI channel 1
%%MIDI program 72
%%MIDI transpose 8
%%MIDI grace 1/8
%%MIDI ratio 3 1
B|TE2e G2e|F2d AFD|E2e G2e|B^c^d e2e/f/|Tg>fe d^cB|AFd DEF|E2e [Gg]>[Aa][Bb]|B>^c^d e2::
B|g2b Tg2e|f2d afd|e2b ~g2b|B>^c^d e2e/f/|Tg>fe d>^cB|AFd DEF|E2e [Gg]>[Aa][Bb]|B^c^d e2:|]

